!!!!SEGMENT: Wil3029-Sire_dondieu.krn
!!!id: Wil3029
!!!AGN: Chanson
!!!SCT: Bernstein (1984)
!!!voices: 3
!!!COM: Adrian Willaert
!!!OTL: Sire dondieu
**kern	**kern	**kern
*part3	*part2	*part1
*staff3	*staff2	*staff1
*I"Bassus	*I"Tenor	*I"Superius
*I'B	*I'T	*I'S
*clefF4	*clefGv2	*clefGv2
*k[b-]	*k[b-]	*k[b-]
*F:	*F:	*F:
*M2/1	*M2/1	*M2/1
*met(C|)	*met(C|)	*met(C|)
=1	=1	=1
1G	0r	2r
.	.	2.G
2E	.	.
.	.	4G
2F	.	2A
=2	=2	=2
2.D	0r	2A
.	.	2d
4E	.	.
2F	.	2.d
2G	.	.
.	.	4c
=3	=3	=3
2G	1r	2B-y
2F	.	2A
2.G	2r	2.B-y
.	[2G	.
4F	.	4A
=4	=4	=4
2E	4G]	2G
.	4G	.
2D	2A	2F
2.F	2A	1r
.	2d	.
4F	.	.
=5	=5	=5
2G	2.d	2r
2D	.	2f
.	4c	.
1r	2B-y	2.f
.	2A	.
.	.	4e
=6	=6	=6
2r	2B-y	2d
2F	2A	2c
2B-y	2G	2.d
2A	2F	.
.	.	4c
=7	=7	=7
2G	2.d	2B-y
2F	.	2A
.	4c	.
2G	2B-y	1r
2F	2A	.
=8	=8	=8
2E	0r	2G
2D	.	2A
2.F	.	2A
.	.	2d
4F	.	.
=9	=9	=9
2G	2G	2.d
1F	2A	.
.	.	4c
.	2A	2c
2G	2d	2B-y
=10	=10	=10
2D	2.d	2A
2F	.	2A
.	4c	.
2C	2c	1G
[2G	2B-y	.
=11	=11	=11
2G]	2A	1r
2F#i	2A	.
1G	1G	2r
.	.	2d
=12	=12	=12
2r	2G	2e
2C	2A	2e
2D	2A	2f
2D	2d	2a
=13	=13	=13
2G	2.d	2g
2B-y	.	1f
.	4d	.
2A	2c	.
[2G	2B-y	4e
.	.	4d
=14	=14	=14
2G]	2A	2e
2F	2A	2d
2E	2.G	2d
2E	.	2c#i
.	4A	.
=15	=15	=15
0D	2B-y	1d
.	4A	.
.	4G	.
.	1A	1r
=16	=16	=16
1r	1G	2.d
.	.	4c
2.G	1r	2B-y
.	.	2d
4F	.	.
=17	=17	=17
2E	2G	2c
2G	2d	2B-y
2F	2d	2A
2E	2c	4G
.	.	[4c
=18	=18	=18
2D	2d	4c]
.	.	4B-y
2C	2e	2c
4D	2f	2A
4E	.	.
4F	2d	[2d
4G	.	.
=19	=19	=19
2E	2.g	2d]
2E	.	2c#i
.	4g	.
1D	2f	2d
.	2d	4r
.	.	4d
=20	=20	=20
2r	2e	2c
1G	2e	1B-y
.	1d	.
2F	.	2A
=21	=21	=21
2E	2G	2c
2D	2d	2B-y
2F	2d	2A
2E	2c	2G
=22	=22	=22
2D	2d	2r
2C	2e	2.c
2F	2f	.
.	.	4d
2G	2d	2B-y
=23	=23	=23
2E	2.g	2G
2C	.	1c
.	4g	.
2D	2f	.
2D	2d	2Bni
=24	=24	=24
2C	2e	2c
2.G	2e	2.B-y
.	1d	.
4G	.	4G
4F	.	4A
4D	.	4B-y
=25	=25	=25
2E	2.g	4c
.	.	2d
2E	.	.
.	4g	4c#i
1D	2f	2d
.	2d	2r
=26	=26	=26
2r	2e	2G
2C	2e	2A
2D	1d	2A
2D	.	2d
=27	=27	=27
2G	0r	2.d
1G	.	.
.	.	4c
.	.	2B-y
2F	.	2A
=28	=28	=28
2E-X	1r	2.B-y
2D	.	.
.	.	4A
2E-i	2G	2G
2D	2A	2F
=29	=29	=29
2C	2A	0r
2BB-y	2d	.
2r	2.d	.
[2G	.	.
.	4c	.
=30	=30	=30
4G]	2B-y	2r
4G	.	.
2F	2A	2.f
2BB-y	2.B-y	.
.	.	4e
2F	.	2d
.	4A	.
=31	=31	=31
2E	2G	2c
2D	2F	2d
2C	2G	2e
4r	2A	2e
4C	.	.
=32	=32	=32
2F	2A	2a
2F	2d	2.a
4D	2.d	.
2B-y	.	4g
.	.	2f
4A	4c	.
=33	=33	=33
2G	2B-y	2e
2F	2A	2.f
4r	2.B-y	.
2G	.	4e
.	.	2d
4F	4A	.
=34	=34	=34
2E	2G	2c
2D	2F	1d
2.B-y	4r	.
.	2G	.
.	.	2d
4B-y	4G	.
=35	=35	=35
2A	2c	2e
2F	2c	2a
1r	2d	2.a
.	2f	.
.	.	4a
=36	=36	=36
0r	2e	2g
.	2d	2f
.	2d	2e
.	2c#i	2e
=37	=37	=37
2r	2d	1d
1D	2.A	.
.	.	2.f
.	4A	.
2D	2B-y	.
.	.	4f
=38	=38	=38
2E	2G	2g
2A	1c	2e
2.A	.	2f
.	2c	2e
4A	.	.
=39	=39	=39
2G	2B-y	2e
2F	2A	2d
2E	2G	2d
2E	2G	2c#i
=40	=40	=40
2D	2A	2d
4BB-y	2d	4d
4C	.	4e
4D	2.d	4f
4E	.	4g
4F	.	4a
4BB-y	4d	4b-y
=41	=41	=41
2F	2c	2a
2G	2B-y	2g
2D	2A	2g
2D	2A	2f#i
=42	=42	=42
1G	1G	1g
1G	2.B-y	2r
.	.	[2G
.	4B-y	.
=43	=43	=43
2E	2c	4G]
.	.	4G
2F	2c	2A
2.D	1r	2A
.	.	2d
4E	.	.
=44	=44	=44
2F	0r	2.d
2G	.	.
.	.	4c
2G	.	2B-y
2F	.	2A
=45	=45	=45
2.G	2r	2.B-y
.	2.G	.
4F	.	4A
2E	.	2G
.	4G	.
2D	2A	2F
=46	=46	=46
2.F	2A	1r
.	2d	.
4F	.	.
2G	2.d	2r
2D	.	2f
.	4c	.
=47	=47	=47
1r	2B-y	2.f
.	2A	.
.	.	4e
2r	2B-y	2d
2F	2A	2c
=48	=48	=48
2B-y	2G	2.d
2A	2F	.
.	.	4c
2G	2.d	2B-y
2F	.	2A
.	4c	.
=49	=49	=49
2G	2B-y	1r
2F	2A	.
2E	1r	2G
2D	.	2A
=50	=50	=50
2.F	1r	2A
.	.	2d
4F	.	.
2G	2G	2.d
[2F	2A	.
.	.	4c
=51	=51	=51
2F]	2A	2c
2G	2d	2B-y
2D	2.d	2A
2F	.	2A
.	4c	.
=52	=52	=52
2C	2c	1G
1G	2B-y	.
.	2A	1r
2F#i	2A	.
=53	=53	=53
1G	1G	2r
.	.	2B-y
2E	2G	2c
2F	2A	2c
=54	=54	=54
2F	2A	2F
2BB-y	2d	2.f
2.B-y	2.d	.
.	.	4d
.	.	4f
4B-y	4d	4g
=55	=55	=55
2F	2c	2a
2G	2B-y	1g
2D	2A	.
2D	2A	2f#i
=56	=56	=56
00Gl	00Gl	00gl
==	==	==
*-	*-	*-
!!!system-decoration: [*]
!!!RDF**kern: i = editorial accidental
!!!RDF**kern: l = terminal long
!!!ENC: Benjamin Ory
!!!END: 2023/10/5
!!!EED: Benjamin Ory
!!!EEV: 2023/10/05
!!!YEC: Copyright 2023 Benjamin Ory, All Rights Reserved
!!!ONB: Translated from MusicXML on 2023/10/05
